X:4562
T:Dunmore Lasses, The
T:Road to Knock, The
R:reel
D:Matt Molloy
Z:id:hn-reel-289
M:C|
K:Em
~E3F GFGA|Be~e2 Be~e2|EDEF G2BG|A2BA GEFD|
~E3F GFGA|Beed ~e3f|feed edBG|1 A2BA GEFD:|2 AcBA GE~E2||
|:gfeg fedf|Be~e2 Be~e2|g2eg fedB|AcBA GE~E2|
g2eg fedc|Beed ~e3f|(3gfe fd edBG|1 A2BA GE~E2:|2 A2BA GEFD||
